src/assets/images/wallet-logos/wallet-connect.svg

<svg width="60" height="60" viewBox="0 0 60 60" fill="none" xmlns="http://www.w3.org/2000/svg">
<circle cx="30" cy="30" r="30" fill="#D9ECFF"/>
<path fill-rule="evenodd" clip-rule="evenodd" d="M30 24.9239C26.8694 24.9239 24.4562 26.6948 23.1109 27.9351C22.9105 28.1199 22.5999 28.1201 22.4054 27.9291L20.2938 25.8553C20.0942 25.6593 20.0924 25.3384 20.2969 25.1476C21.906 23.6458 25.2988 21 30 21C34.7012 21 38.094 23.6458 39.7031 25.1476C39.9076 25.3384 39.9058 25.6593 39.7062 25.8553L37.5946 27.9291C37.4001 28.1201 37.0895 28.1199 36.8891 27.9351C35.5438 26.6948 33.1306 24.9239 30 24.9239ZM14.3784 31.9426C14.1705 31.7555 14.1565 31.4343 14.3474 31.2299L16.3648 29.0685C16.5508 28.8692 16.8622 28.8557 17.0648 29.0381L23.0217 34.4007C23.2106 34.5708 23.497 34.5721 23.6874 34.4038L29.6689 29.1169C29.858 28.9497 30.142 28.9497 30.3311 29.1169L36.3126 34.4038C36.503 34.5721 36.7894 34.5708 36.9783 34.4007L42.9352 29.0381C43.1378 28.8557 43.4492 28.8692 43.6352 29.0685L45.6526 31.2299C45.8435 31.4343 45.8295 31.7555 45.6216 31.9426L37.0029 39.7016C36.8141 39.8716 36.5277 39.8729 36.3373 39.7046L30.3311 34.3959C30.142 34.2288 29.858 34.2288 29.6689 34.3959L23.6627 39.7046C23.4723 39.8729 23.1859 39.8716 22.9971 39.7016L14.3784 31.9426Z" fill="#278FFC"/>
</svg>

<svg xmlns="http://www.w3.org/2000/svg" width="60" height="60" fill="none" viewBox="0 0 60 60"><circle cx="30" cy="30" r="30" fill="#D9ECFF"/><path fill="#278FFC" fill-rule="evenodd" d="M30 24.924c-3.13 0-5.544 1.77-6.89 3.011a.51.51 0 0 1-.705-.006l-2.111-2.074a.49.49 0 0 1 .003-.707C21.906 23.646 25.299 21 30 21s8.094 2.646 9.703 4.148c.205.19.203.511.003.707l-2.111 2.074a.51.51 0 0 1-.706.006c-1.345-1.24-3.758-3.011-6.889-3.011m-15.622 7.019a.5.5 0 0 1-.03-.713l2.017-2.161a.5.5 0 0 1 .7-.03l5.957 5.362a.5.5 0 0 0 .665.003l5.982-5.287a.5.5 0 0 1 .662 0l5.982 5.287a.5.5 0 0 0 .665-.003l5.957-5.363a.5.5 0 0 1 .7.03l2.018 2.162a.5.5 0 0 1-.031.713l-8.62 7.759a.5.5 0 0 1-.665.003l-6.006-5.31a.5.5 0 0 0-.662 0l-6.006 5.31a.5.5 0 0 1-.666-.003z" clip-rule="evenodd"/></svg>
